website/media/images/svg/tiktok.svg

<svg width="36" height="36" viewBox="0 0 36 36" fill="none" xmlns="http://www.w3.org/2000/svg">
<path d="M36 18C36 8.05888 27.9411 0 18 0C8.05888 0 0 8.05888 0 18C0 27.9411 8.05888 36 18 36C27.9411 36 36 27.9411 36 18Z" fill="url(#paint0_radial)"/>
<path d="M26.9903 13.1298C25.8193 13.1298 24.7388 12.7419 23.8712 12.0874C22.8761 11.3372 22.1611 10.2367 21.9086 8.96825C21.8461 8.65485 21.8124 8.33143 21.8092 8H18.464V17.1407L18.46 22.1475C18.46 23.486 17.5883 24.621 16.38 25.0202C16.0293 25.136 15.6506 25.1909 15.2563 25.1693C14.7529 25.1416 14.2812 24.9897 13.8712 24.7445C12.9987 24.2227 12.4072 23.276 12.3912 22.1932C12.3659 20.5007 13.7342 19.1209 15.4254 19.1209C15.7592 19.1209 16.0798 19.1754 16.38 19.2744V16.776V15.8779C16.0634 15.831 15.7412 15.8065 15.4154 15.8065C13.5642 15.8065 11.8329 16.576 10.5953 17.9623C9.65996 19.0099 9.09888 20.3464 9.01232 21.7479C8.8989 23.589 9.57259 25.3392 10.8791 26.6305C11.0711 26.82 11.2726 26.996 11.4834 27.1583C12.6036 28.0203 13.973 28.4876 15.4154 28.4876C15.7412 28.4876 16.0634 28.4636 16.38 28.4167C17.7274 28.2171 18.9706 27.6003 19.9517 26.6305C21.1572 25.439 21.8232 23.8572 21.8305 22.1735L21.8132 14.6968C22.3883 15.1405 23.0171 15.5076 23.692 15.7925C24.7416 16.2354 25.8546 16.4598 27 16.4594V14.0303V13.129C27.0008 13.1298 26.9911 13.1298 26.9903 13.1298V13.1298Z" fill="white"/>
<defs>
<radialGradient id="paint0_radial" cx="0" cy="0" r="1" gradientUnits="userSpaceOnUse" gradientTransform="translate(18 18) scale(18)">
<stop stop-color="#707070"/>
<stop offset="1"/>
</radialGradient>
</defs>
</svg>

<svg width="36" height="36" viewBox="0 0 36 36" fill="none" xmlns="http://www.w3.org/2000/svg"><path d="M36 18c0-9.941-8.059-18-18-18S0 8.059 0 18s8.059 18 18 18 18-8.059 18-18z" fill="url(#paint0_radial)"/><path d="M26.99 13.13a5.161 5.161 0 01-3.119-1.043A5.174 5.174 0 0121.81 8h-3.345v9.14l-.004 5.008a3.028 3.028 0 01-3.204 3.021 3.017 3.017 0 01-1.385-.425 3.028 3.028 0 01-1.48-2.55 3.03 3.03 0 013.989-2.92v-3.396a6.58 6.58 0 00-.965-.072c-1.85 0-3.582.77-4.82 2.156a6.275 6.275 0 00-1.583 3.786 6.267 6.267 0 001.867 4.883 6.416 6.416 0 004.536 1.857c.326 0 .648-.024.965-.071a6.394 6.394 0 003.572-1.787 6.263 6.263 0 001.878-4.456l-.017-7.477A8.455 8.455 0 0027 16.46v-3.332h-.01z" fill="#fff"/><defs><radialGradient id="paint0_radial" cx="0" cy="0" r="1" gradientUnits="userSpaceOnUse" gradientTransform="matrix(18 0 0 18 18 18)"><stop stop-color="#707070"/><stop offset="1"/></radialGradient></defs></svg>
